actions/scalable/resource-calendar-child.svg

<svg height="22" width="22" xmlns="http://www.w3.org/2000/svg" xmlns:sodipodi="http://sodipodi.sourceforge.net/DTD/sodipodi-0.dtd" xmlns:inkscape="http://www.inkscape.org/namespaces/inkscape">
 <path d="m3 3v16h6v-1h-5v-11h14v2h1v-6h-2v2.0996h-2v-2.0996h-8v2.0996h-2v-2.0996h-2zm3 5v2h2v-2h-2zm4 0v2h2v-2h-2zm4 0v2h2v-2h-2zm-8 3v2h2v-2h-2zm5 0v8h8v-8h-1v1h-1v-1h-4v1h-1v-1h-1zm1 2h6v5h-6v-5zm1 1v1h1v-1h-1zm3 0v1h1v-1h-1zm0 2v1h1v-1h-1z" fill="#4d4d4d" transform="matrix(1 0 0 1 0 0)"/>
</svg>

<?xml version="1.0" encoding="UTF-8" standalone="no"?>
<!-- Created with Inkscape (http://www.inkscape.org/) -->

<svg
   xmlns:dc="http://purl.org/dc/elements/1.1/"
   xmlns:cc="http://creativecommons.org/ns#"
   xmlns:rdf="http://www.w3.org/1999/02/22-rdf-syntax-ns#"
   xmlns:svg="http://www.w3.org/2000/svg"
   xmlns="http://www.w3.org/2000/svg"
   xmlns:sodipodi="http://sodipodi.sourceforge.net/DTD/sodipodi-0.dtd"
   xmlns:inkscape="http://www.inkscape.org/namespaces/inkscape"
   width="22"
   height="22"
   id="svg3049"
   version="1.1"
   inkscape:version="0.48+devel r"
   sodipodi:docname="resource-calendar-child.svg"
   inkscape:export-filename="/home/uri/.kde/share/icons/NITRUX-KDE/16x16/actions/view-right-new.png"
   inkscape:export-xdpi="30"
   inkscape:export-ydpi="30">
  <defs
     id="defs3051" />
  <sodipodi:namedview
     id="base"
     pagecolor="#ffffff"
     bordercolor="#666666"
     borderopacity="1.0"
     inkscape:pageopacity="0.0"
     inkscape:pageshadow="2"
     inkscape:zoom="33.007813"
     inkscape:cx="14.209888"
     inkscape:cy="9.5219281"
     inkscape:document-units="px"
     inkscape:current-layer="layer1"
     showgrid="true"
     fit-margin-top="0"
     fit-margin-left="0"
     fit-margin-right="0"
     fit-margin-bottom="0"
     inkscape:window-width="1366"
     inkscape:window-height="666"
     inkscape:window-x="-2"
     inkscape:window-y="25"
     inkscape:window-maximized="1"
     inkscape:showpageshadow="false"
     borderlayer="true">
    <sodipodi:guide
       position="2.0000044,20.00003"
       orientation="18,0"
       id="guide4067" />
    <sodipodi:guide
       position="2.0000044,2.0000296"
       orientation="0,18"
       id="guide4069" />
    <sodipodi:guide
       position="20.000004,2.0000296"
       orientation="-18,0"
       id="guide4071" />
    <sodipodi:guide
       position="20.000004,20.00003"
       orientation="0,-18"
       id="guide4073" />
    <sodipodi:guide
       position="3.0000044,19.00003"
       orientation="16,0"
       id="guide4077" />
    <sodipodi:guide
       position="3.0000044,3.0000296"
       orientation="0,16"
       id="guide4079" />
    <sodipodi:guide
       position="19.000004,3.0000296"
       orientation="-16,0"
       id="guide4081" />
    <sodipodi:guide
       position="19.000004,19.00003"
       orientation="0,-16"
       id="guide4083" />
    <inkscape:grid
       type="xygrid"
       id="grid4085" />
  </sodipodi:namedview>
  <metadata
     id="metadata3054">
    <rdf:RDF>
      <cc:Work
         rdf:about="">
        <dc:format>image/svg+xml</dc:format>
        <dc:type
           rdf:resource="http://purl.org/dc/dcmitype/StillImage" />
        <dc:title />
      </cc:Work>
    </rdf:RDF>
  </metadata>
  <g
     inkscape:label="Capa 1"
     inkscape:groupmode="layer"
     id="layer1"
     transform="translate(-421.71429,-525.79074)">
    <path
       style="fill:#666666;fill-opacity:1;stroke:none"
       d="M 3 3 L 3 19 L 9 19 L 9 18 L 4 18 L 4 7 L 18 7 L 18 9 L 19 9 L 19 3 L 17 3 L 17 5.0996094 L 15 5.0996094 L 15 3 L 7 3 L 7 5.0996094 L 5 5.0996094 L 5 3 L 3 3 z M 6 8 L 6 10 L 8 10 L 8 8 L 6 8 z M 10 8 L 10 10 L 12 10 L 12 8 L 10 8 z M 14 8 L 14 10 L 16 10 L 16 8 L 14 8 z M 6 11 L 6 13 L 8 13 L 8 11 L 6 11 z M 11 11 L 11 19 L 19 19 L 19 11 L 18 11 L 18 12 L 17 12 L 17 11 L 13 11 L 13 12 L 12 12 L 12 11 L 11 11 z M 12 13 L 18 13 L 18 18 L 12 18 L 12 13 z M 13 14 L 13 15 L 14 15 L 14 14 L 13 14 z M 16 14 L 16 15 L 17 15 L 17 14 L 16 14 z M 16 16 L 16 17 L 17 17 L 17 16 L 16 16 z "
       transform="translate(421.71429,525.79074)"
       id="rect4089" />
  </g>
</svg>
